docs/.gitbook/assets/icon-code-16@dark.svg

<svg width="32" height="32" viewBox="0 0 16 16" fill="none" xmlns="http://www.w3.org/2000/svg">
<rect x="0" y="0" width="16" height="16" fill="#181c1f"/>
<path fill-rule="evenodd" clip-rule="evenodd" d="M5.7996 4.23966C6.08145 4.5432 6.06387 5.01775 5.76034 5.2996L2.85221 8L5.76034 10.7004C6.06387 10.9823 6.08145 11.4568 5.7996 11.7603C5.51774 12.0639 5.04319 12.0815 4.73966 11.7996L1.23966 8.5496C1.08684 8.40769 1 8.20855 1 8C1 7.79145 1.08684 7.59232 1.23966 7.45041L4.73966 4.20041C5.04319 3.91856 5.51774 3.93613 5.7996 4.23966ZM10.2004 4.23966C10.4823 3.93613 10.9568 3.91856 11.2603 4.20041L14.7603 7.45041C14.9132 7.59232 15 7.79145 15 8C15 8.20855 14.9132 8.40769 14.7603 8.5496L11.2603 11.7996C10.9568 12.0815 10.4823 12.0639 10.2004 11.7603C9.91855 11.4568 9.93613 10.9823 10.2397 10.7004L13.1478 8L10.2397 5.2996C9.93613 5.01775 9.91855 4.5432 10.2004 4.23966Z" fill="#fff"/>
</svg>

<svg xmlns="http://www.w3.org/2000/svg" width="32" height="32" fill="none" viewBox="0 0 16 16"><path fill="#181c1f" d="M0 0h16v16H0z"/><path fill="#fff" fill-rule="evenodd" d="M5.8 4.24a.75.75 0 0 1-.04 1.06L2.852 8l2.908 2.7a.75.75 0 1 1-1.02 1.1l-3.5-3.25a.75.75 0 0 1 0-1.1l3.5-3.25a.75.75 0 0 1 1.06.04m4.4 0a.75.75 0 0 1 1.06-.04l3.5 3.25a.75.75 0 0 1 0 1.1l-3.5 3.25a.75.75 0 1 1-1.02-1.1L13.148 8 10.24 5.3a.75.75 0 0 1-.04-1.06" clip-rule="evenodd"/></svg>
